apps/22/minecraft.svg

<?xml version="1.0" encoding="UTF-8" standalone="no"?>
<!-- Created with Inkscape (http://www.inkscape.org/) -->

<svg
   xmlns:dc="http://purl.org/dc/elements/1.1/"
   xmlns:cc="http://creativecommons.org/ns#"
   xmlns:rdf="http://www.w3.org/1999/02/22-rdf-syntax-ns#"
   xmlns:svg="http://www.w3.org/2000/svg"
   xmlns="http://www.w3.org/2000/svg"
   xmlns:sodipodi="http://sodipodi.sourceforge.net/DTD/sodipodi-0.dtd"
   xmlns:inkscape="http://www.inkscape.org/namespaces/inkscape"
   version="1.1"
   width="22"
   height="22"
   id="svg2"
   inkscape:version="0.48.4 r9939"
   sodipodi:docname="minecraft.svg">
  <sodipodi:namedview
     pagecolor="#ffffff"
     bordercolor="#666666"
     borderopacity="1"
     objecttolerance="10"
     gridtolerance="10"
     guidetolerance="10"
     inkscape:pageopacity="0"
     inkscape:pageshadow="2"
     inkscape:window-width="1920"
     inkscape:window-height="1025"
     id="namedview6"
     showgrid="true"
     inkscape:zoom="29.5"
     inkscape:cx="15.936501"
     inkscape:cy="12.176321"
     inkscape:window-x="-2"
     inkscape:window-y="32"
     inkscape:window-maximized="1"
     inkscape:current-layer="svg2"
     inkscape:snap-global="true"
     inkscape:snap-bbox="true"
     inkscape:bbox-paths="true"
     inkscape:bbox-nodes="true"
     inkscape:snap-bbox-edge-midpoints="true"
     inkscape:snap-bbox-midpoints="true"
     inkscape:object-paths="true"
     inkscape:snap-intersection-paths="true"
     inkscape:object-nodes="true"
     inkscape:snap-smooth-nodes="true"
     inkscape:snap-midpoints="true"
     inkscape:snap-object-midpoints="true"
     inkscape:snap-center="true">
    <inkscape:grid
       type="xygrid"
       id="grid2982"
       empspacing="5"
       visible="true"
       enabled="true"
       snapvisiblegridlinesonly="true" />
  </sodipodi:namedview>
  <defs
     id="defs4" />
  <metadata
     id="metadata7">
    <rdf:RDF>
      <cc:Work
         rdf:about="">
        <dc:format>image/svg+xml</dc:format>
        <dc:type
           rdf:resource="http://purl.org/dc/dcmitype/StillImage" />
        <dc:title />
      </cc:Work>
    </rdf:RDF>
  </metadata>
  <path
     style="opacity:0.58089498;color:#000000;fill:#f1f3f5;fill-opacity:0.90288714000000003;fill-rule:nonzero;stroke:none;stroke-width:2;marker:none;visibility:visible;display:inline;overflow:visible;enable-background:accumulate"
     d="M 1,1 1,21 21,21 21,1 1,1 z m 1,1 18,0 0,18 -5,0 0,-7 -2,0 0,-2 -4,0 0,2 -2,0 0,7 -5,0 0,-18 z m 7,9 0,-4 -4,0 0,4 4,0 z m 4,0 4,0 0,-4 -4,0 0,4 z m -4,6 4,0 0,3 -4,0 0,-3 z"
     id="rect3801"
     inkscape:connector-curvature="0" />
  <g
     id="g3043"
     inkscape:export-filename="folder.png"
     inkscape:export-xdpi="90"
     inkscape:export-ydpi="90"
     transform="translate(141.875,6.582283)" />
  <g
     id="scalable"
     transform="matrix(1.0385892,0,0,1.0385892,1357.2222,1885.3121)"
     inkscape:label="#g3701"
     style="fill:#ffffff" />
  <path
     id="path3198"
     d="m 2,2 0,18 5,0 0,-7 2,0 0,-2 -4,0 0,-4 4,0 0,4 4,0 0,-4 4,0 0,4 -4,0 0,2 2,0 0,7 5,0 L 20,2 2,2 z m 7,15 0,3 4,0 0,-3 -4,0 z"
     style="color:#000000;fill:#27303a;fill-opacity:0.753280819999999968;fill-rule:nonzero;stroke:none;stroke-width:1;marker:none;visibility:visible;display:inline;overflow:visible;enable-background:accumulate"
     inkscape:connector-curvature="0" />
</svg>

<?xml version="1.0" encoding="UTF-8" standalone="no"?>
<svg
   xmlns:dc="http://purl.org/dc/elements/1.1/"
   xmlns:cc="http://creativecommons.org/ns#"
   xmlns:rdf="http://www.w3.org/1999/02/22-rdf-syntax-ns#"
   xmlns:svg="http://www.w3.org/2000/svg"
   xmlns="http://www.w3.org/2000/svg"
   version="1.1"
   width="22"
   height="22"
   id="svg2">
  <defs
     id="defs4">
    <style
       type="text/css"
       id="current-color-scheme">.ColorScheme-Text {color:#090d11;}.ColorScheme-Background{color:#ffffff;}</style>
  </defs>
  <metadata
     id="metadata7">
    <rdf:RDF>
      <cc:Work
         rdf:about="">
        <dc:format>image/svg+xml</dc:format>
        <dc:type
           rdf:resource="http://purl.org/dc/dcmitype/StillImage" />
        <dc:title></dc:title>
      </cc:Work>
    </rdf:RDF>
  </metadata>
  <path
     style="fill:currentColor;fill-opacity:0.5"
     d="M 1,1 V 21 H 21 V 1 Z M 2,2 H 20 V 20 H 15 V 13 H 13 V 11 H 9 v 2 H 7 v 7 H 2 Z m 7,9 V 7 H 5 v 4 z m 4,0 h 4 V 7 h -4 z m -4,6 h 4 v 3 H 9 Z"
     class="ColorScheme-Background"
     id="rect3801" />
  <path
     id="path3198"
     d="M 2,2 V 20 H 7 V 13 H 9 V 11 H 5 V 7 h 4 v 4 h 4 V 7 h 4 v 4 h -4 v 2 h 2 v 7 h 5 V 2 Z m 7,15 v 3 h 4 v -3 z"
     style="fill:currentColor;fill-opacity:0.75"
     class="ColorScheme-Text" />
</svg>
